; generated by Slic3r 0.9.10b on 2013-09-21 at 13:24:06

; layer_height = 0.4
; perimeters = 3
; top_solid_layers = 3
; bottom_solid_layers = 3
; fill_density = 0.4
; perimeter_speed = 30
; infill_speed = 60
; travel_speed = 130
; nozzle_diameter = 0.5
; filament_diameter = 3
; extrusion_multiplier = 1
; perimeters extrusion width = 0.53mm
; infill extrusion width = 0.53mm
; solid infill extrusion width = 0.53mm
; top infill extrusion width = 0.53mm
; first layer extrusion width = 0.80mm

G21 ; set units to millimeters
M107
M104 S200 ; set temperature
G28 ; home all axes
G1 Z5 F5000 ; lift nozzle
M109 S200 ; wait for temperature to be reached
G90 ; use absolute coordinates
G92 E0
M82 ; use absolute distances for extrusion
G1 F1800.000 E-0.50000
G92 E0
G1 Z0.400 F7800.000
G1 X89.742 Y87.902
G1 F1800.000 E0.50000
G1 X90.532 Y87.302 F540.000 E0.54130
G1 X91.222 Y86.842 E0.57582
G1 X92.062 Y86.362 E0.61609
G1 X94.252 Y85.282 E0.71774
G1 X95.162 Y84.902 E0.75879
G1 X96.122 Y84.652 E0.80008
G1 X96.942 Y84.492 E0.83486
G1 X97.882 Y84.362 E0.87436
G1 X100.322 Y84.202 E0.97615
G1 X101.292 Y84.202 E1.01653
G1 X102.262 Y84.332 E1.05727
G1 X103.072 Y84.492 E1.09164
G1 X104.002 Y84.742 E1.13173
G1 X106.322 Y85.522 E1.23362
G1 X107.252 Y85.902 E1.27544
G1 X108.132 Y86.412 E1.31778
G1 X108.812 Y86.872 E1.35195
G1 X109.542 Y87.442 E1.39051
G1 X111.382 Y89.052 E1.49228
G1 X112.082 Y89.742 E1.53320
G1 X112.682 Y90.532 E1.57449
G1 X113.142 Y91.222 E1.60902
G1 X113.612 Y92.032 E1.64800
G1 X114.702 Y94.222 E1.74983
G1 X115.082 Y95.152 E1.79165
G1 X115.342 Y96.122 E1.83346
G1 X115.502 Y96.942 E1.86823
G1 X115.632 Y97.882 E1.90774
G1 X115.792 Y100.322 E2.00953
G1 X115.792 Y101.292 E2.04990
G1 X115.662 Y102.262 E2.09064
G1 X115.502 Y103.072 E2.12501
G1 X115.252 Y104.002 E2.16510
G1 X114.472 Y106.322 E2.26699
G1 X114.072 Y107.292 E2.31067
G1 X113.542 Y108.192 E2.35415
G1 X113.072 Y108.872 E2.38856
G1 X112.542 Y109.542 E2.42412
G1 X110.932 Y111.382 E2.52589
G1 X110.242 Y112.082 E2.56681
G1 X109.452 Y112.682 E2.60811
G1 X108.762 Y113.142 E2.64263
G1 X107.952 Y113.612 E2.68161
G1 X105.762 Y114.702 E2.78344
G1 X104.842 Y115.082 E2.82488
G1 X103.882 Y115.342 E2.86628
G1 X103.072 Y115.502 E2.90065
G1 X102.112 Y115.632 E2.94098
G1 X99.672 Y115.792 E3.04277
G1 X98.702 Y115.792 E3.08314
G1 X97.732 Y115.662 E3.12388
G1 X96.922 Y115.502 E3.15825
G1 X95.992 Y115.252 E3.19834
G1 X93.672 Y114.472 E3.30023
G1 X92.732 Y114.082 E3.34259
G1 X91.842 Y113.562 E3.38550
G1 X91.152 Y113.092 E3.42026
G1 X90.442 Y112.542 E3.45764
G1 X88.602 Y110.932 E3.55942
G1 X87.902 Y110.242 E3.60033
G1 X87.302 Y109.452 E3.64163
G1 X86.842 Y108.762 E3.67615
G1 X86.362 Y107.922 E3.71642
G1 X85.282 Y105.732 E3.81807
G1 X84.902 Y104.832 E3.85874
G1 X84.652 Y103.882 E3.89963
G1 X84.492 Y103.072 E3.93400
G1 X84.362 Y102.112 E3.97433
G1 X84.202 Y99.672 E4.07612
G1 X84.202 Y98.702 E4.11650
G1 X84.332 Y97.732 E4.15724
G1 X84.492 Y96.922 E4.19161
G1 X84.742 Y95.992 E4.23169
G1 X85.522 Y93.672 E4.33358
G1 X85.892 Y92.762 E4.37447
G1 X86.382 Y91.912 E4.41532
G1 X86.842 Y91.222 E4.44984
G1 X87.442 Y90.442 E4.49080
G1 X89.052 Y88.602 E4.59258
G1 X89.664 Y87.980 E4.62890
G1 X90.232 Y88.462 F7800.000
G1 X90.932 Y87.922 F540.000 E4.66570
G1 X91.622 Y87.462 E4.70022
G1 X92.382 Y87.022 E4.73678
G1 X94.572 Y85.942 E4.83843
G1 X95.402 Y85.602 E4.87576
G1 X96.262 Y85.372 E4.91282
G1 X97.082 Y85.212 E4.94760
G1 X97.932 Y85.102 E4.98328
G1 X100.372 Y84.942 E5.08507
G1 X101.252 Y84.942 E5.12170
G1 X102.122 Y85.052 E5.15820
G1 X102.932 Y85.212 E5.19257
G1 X103.772 Y85.442 E5.22883
G1 X106.092 Y86.222 E5.33072
G1 X106.932 Y86.562 E5.36844
G1 X107.712 Y87.022 E5.40614
G1 X108.392 Y87.482 E5.44031
G1 X109.062 Y87.992 E5.47536
G1 X110.902 Y89.602 E5.57714
G1 X111.522 Y90.232 E5.61393
G1 X112.062 Y90.932 E5.65074
G1 X112.522 Y91.622 E5.68526
G1 X112.952 Y92.362 E5.72088
G1 X114.042 Y94.552 E5.82272
G1 X114.392 Y95.382 E5.86021
G1 X114.622 Y96.262 E5.89808
G1 X114.782 Y97.082 E5.93285
G1 X114.892 Y97.932 E5.96853
G1 X115.052 Y100.372 E6.07032
G1 X115.052 Y101.252 E6.10695
G1 X114.942 Y102.122 E6.14346
G1 X114.782 Y102.932 E6.17783
G1 X114.552 Y103.772 E6.21408
G1 X113.772 Y106.092 E6.31597
G1 X113.412 Y106.962 E6.35516
G1 X112.932 Y107.772 E6.39436
G1 X112.462 Y108.452 E6.42877
G1 X111.992 Y109.062 E6.46082
G1 X110.382 Y110.902 E6.56260
G1 X109.752 Y111.522 E6.59940
G1 X109.052 Y112.062 E6.63620
G1 X108.362 Y112.522 E6.67072
G1 X107.622 Y112.952 E6.70635
G1 X105.432 Y114.042 E6.80818
G1 X104.602 Y114.392 E6.84568
G1 X103.742 Y114.622 E6.88273
G1 X102.932 Y114.782 E6.91710
G1 X102.062 Y114.892 E6.95361
G1 X99.622 Y115.052 E7.05540
G1 X98.742 Y115.052 E7.09203
G1 X97.872 Y114.942 E7.12853
G1 X97.062 Y114.782 E7.16290
G1 X96.222 Y114.552 E7.19916
G1 X93.902 Y113.772 E7.30105
G1 X93.052 Y113.422 E7.33931
G1 X92.262 Y112.962 E7.37737
G1 X91.572 Y112.492 E7.41212
G1 X90.922 Y111.992 E7.44626
G1 X89.082 Y110.382 E7.54803
G1 X88.462 Y109.752 E7.58483
G1 X87.922 Y109.052 E7.62163
G1 X87.462 Y108.362 E7.65615
G1 X87.022 Y107.602 E7.69271
G1 X85.942 Y105.412 E7.79435
G1 X85.602 Y104.592 E7.83131
G1 X85.372 Y103.742 E7.86796
G1 X85.212 Y102.932 E7.90233
G1 X85.102 Y102.062 E7.93884
G1 X84.942 Y99.622 E8.04063
G1 X84.942 Y98.742 E8.07726
G1 X85.052 Y97.872 E8.11376
G1 X85.212 Y97.062 E8.14813
G1 X85.442 Y96.222 E8.18439
G1 X86.222 Y93.902 E8.28627
G1 X86.552 Y93.082 E8.32307
G1 X87.002 Y92.312 E8.36020
G1 X87.462 Y91.622 E8.39472
G1 X87.992 Y90.922 E8.43127
G1 X89.602 Y89.082 E8.53304
G1 X90.153 Y88.539 E8.56524
G1 F1800.000 E8.06524
G92 E0
G1 X98.617 Y104.813 F7800.000
G1 F1800.000 E0.50000
G1 X99.064 Y105.156 F540.000 E0.52347
G1 X99.516 Y105.343 E0.54380
G1 X100.000 Y105.407 E0.56413
G1 X100.484 Y105.343 E0.58447
G1 X100.935 Y105.156 E0.60480
G1 X101.383 Y104.813 E0.62827
G1 X101.551 Y104.981 E0.63819
G1 X101.039 Y105.649 E0.67322
G1 X102.456 Y105.367 E0.73334
G1 X102.526 Y105.537 E0.74100
G1 X102.124 Y105.806 E0.76112
G1 X102.073 Y107.959 E0.85078
G1 X101.944 Y107.991 E0.85632
G1 X100.806 Y105.952 E0.95350
G1 X99.741 Y106.177 E0.99882
G1 X98.870 Y108.146 E1.08848
G1 X98.738 Y108.126 E1.09402
G1 X98.436 Y105.544 E1.20223
G1 X98.961 Y105.649 E1.22449
G1 X98.449 Y104.981 E1.25952
G1 X98.539 Y104.891 E1.26485
G1 X98.810 Y105.342 F7800.000
G1 X97.941 Y105.531
G1 X97.871 Y105.701 F540.000 E1.27251
G1 X97.397 Y105.607 E1.29263
G1 X95.838 Y107.094 E1.38228
G1 X95.724 Y107.025 E1.38782
G1 X96.434 Y104.524 E1.49603
G1 X97.850 Y105.470 E1.56692
G1 X97.788 Y105.634 F7800.000
G1 X95.981 Y104.323
G1 X95.851 Y104.453 F540.000 E1.57458
G1 X95.449 Y104.184 E1.59470
G1 X93.440 Y104.961 E1.68436
G1 X93.361 Y104.854 E1.68989
G1 X94.974 Y102.815 E1.79810
G1 X95.920 Y104.231 E1.86899
G1 X95.801 Y104.358 F7800.000
G1 X94.633 Y102.456
G1 X94.463 Y102.526 F540.000 E1.87665
G1 X94.194 Y102.124 E1.89677
G1 X92.041 Y102.073 E1.98643
G1 X92.009 Y101.944 E1.99197
G1 X94.048 Y100.806 E2.08915
G1 X93.823 Y99.741 E2.13447
G1 X91.854 Y98.870 E2.22413
G1 X91.874 Y98.738 E2.22967
G1 X94.456 Y98.436 E2.33788
G1 X94.351 Y98.961 E2.36014
G1 X95.019 Y98.449 E2.39516
G1 X95.187 Y98.617 E2.40508
G1 X94.844 Y99.064 E2.42855
G1 X94.657 Y99.516 E2.44889
G1 X94.593 Y100.000 E2.46922
G1 X94.657 Y100.484 E2.48955
G1 X94.844 Y100.935 E2.50988
G1 X95.187 Y101.383 E2.53335
G1 X95.019 Y101.551 E2.54327
G1 X94.351 Y101.039 E2.57830
G1 X94.612 Y102.347 E2.63383
G1 X94.452 Y102.420 F7800.000
G1 X94.469 Y97.941
G1 X94.298 Y97.871 F540.000 E2.64150
G1 X94.393 Y97.397 E2.66161
G1 X92.906 Y95.838 E2.75127
G1 X92.975 Y95.724 E2.75681
G1 X95.476 Y96.434 E2.86502
G1 X94.530 Y97.850 E2.93591
G1 X94.366 Y97.788 F7800.000
G1 X95.677 Y95.981
G1 X95.547 Y95.851 F540.000 E2.94357
G1 X95.816 Y95.449 E2.96368
G1 X95.039 Y93.440 E3.05334
G1 X95.146 Y93.361 E3.05888
G1 X97.185 Y94.974 E3.16709
G1 X95.769 Y95.920 E3.23798
G1 X95.642 Y95.801 F7800.000
G1 X97.544 Y94.633
G1 X97.474 Y94.463 F540.000 E3.24564
G1 X97.876 Y94.194 E3.26576
G1 X97.927 Y92.041 E3.35542
G1 X98.056 Y92.009 E3.36095
G1 X99.194 Y94.048 E3.45813
G1 X100.259 Y93.823 E3.50346
G1 X101.130 Y91.854 E3.59312
G1 X101.262 Y91.874 E3.59865
G1 X101.564 Y94.456 E3.70686
G1 X101.039 Y94.351 E3.72912
G1 X101.551 Y95.019 E3.76415
G1 X101.383 Y95.187 E3.77407
G1 X100.935 Y94.844 E3.79754
G1 X100.484 Y94.657 E3.81787
G1 X100.000 Y94.593 E3.83821
G1 X99.516 Y94.657 E3.85854
G1 X99.064 Y94.844 E3.87887
G1 X98.617 Y95.187 E3.90234
G1 X98.449 Y95.019 E3.91226
G1 X98.961 Y94.351 E3.94729
G1 X97.653 Y94.612 E4.00282
G1 X97.580 Y94.452 F7800.000
G1 X102.059 Y94.469
G1 X102.129 Y94.299 F540.000 E4.01048
G1 X102.603 Y94.393 E4.03060
G1 X104.162 Y92.906 E4.12026
G1 X104.276 Y92.975 E4.12579
G1 X103.566 Y95.476 E4.23400
G1 X102.150 Y94.530 E4.30489
G1 X102.212 Y94.366 F7800.000
G1 X104.019 Y95.677
G1 X104.149 Y95.547 F540.000 E4.31255
G1 X104.551 Y95.816 E4.33267
G1 X106.560 Y95.039 E4.42233
G1 X106.639 Y95.146 E4.42786
G1 X105.026 Y97.185 E4.53607
G1 X104.080 Y95.769 E4.60696
G1 X104.199 Y95.642 F7800.000
G1 X105.367 Y97.544
G1 X105.537 Y97.474 F540.000 E4.61462
G1 X105.806 Y97.876 E4.63474
G1 X107.959 Y97.927 E4.72440
G1 X107.991 Y98.056 E4.72994
G1 X105.952 Y99.194 E4.82712
G1 X106.177 Y100.259 E4.87244
G1 X108.146 Y101.130 E4.96210
G1 X108.126 Y101.262 E4.96764
G1 X105.544 Y101.564 E5.07585
G1 X105.649 Y101.039 E5.09811
G1 X104.981 Y101.551 E5.13313
G1 X104.813 Y101.383 E5.14305
G1 X105.156 Y100.935 E5.16652
G1 X105.343 Y100.484 E5.18686
G1 X105.407 Y100.000 E5.20719
G1 X105.343 Y99.516 E5.22752
G1 X105.156 Y99.064 E5.24785
G1 X104.813 Y98.617 E5.27132
G1 X104.981 Y98.449 E5.28124
G1 X105.649 Y98.961 E5.31628
G1 X105.388 Y97.653 E5.37181
G1 X105.547 Y97.580 F7800.000
G1 X105.531 Y102.059
G1 X105.702 Y102.129 F540.000 E5.37947
G1 X105.607 Y102.603 E5.39959
G1 X107.094 Y104.162 E5.48925
G1 X107.025 Y104.276 E5.49478
G1 X104.524 Y103.566 E5.60299
G1 X105.470 Y102.150 E5.67388
G1 X105.634 Y102.212 F7800.000
G1 X104.323 Y104.019
G1 X104.453 Y104.149 F540.000 E5.68154
G1 X104.184 Y104.551 E5.70166
G1 X104.961 Y106.560 E5.79132
G1 X104.854 Y106.639 E5.79686
G1 X102.815 Y105.026 E5.90506
G1 X104.231 Y104.080 E5.97595
G1 X104.358 Y104.199 F7800.000
G1 F1800.000 E5.47595
G92 E0
G1 X105.190 Y99.821 F7800.000
G1 F1800.000 E0.50000
G1 X105.216 Y100.372 F540.000 E0.52296
G1 X104.989 Y101.032 E0.55199
G1 X104.663 Y101.625 E0.58017
G1 X104.357 Y101.812 E0.59513
G1 X103.113 Y101.958 E0.64725
G1 X102.225 Y101.483 E0.68917
G1 X101.536 Y101.536 E0.71795
G1 X101.541 Y101.541 F7800.000
G1 X101.517 Y102.216 F540.000 E0.74606
G1 X101.928 Y103.014 E0.78344
G1 X101.974 Y103.529 E0.80496
G1 X101.742 Y104.505 E0.84673
G1 X101.742 Y104.505 F7800.000
G1 X100.971 Y105.042 F540.000 E0.88586
G1 X99.628 Y105.216 E0.94223
G1 X98.390 Y104.668 E0.99860
G1 X98.072 Y104.057 E1.02724
G1 X98.026 Y103.542 E1.04876
G1 X98.026 Y103.542 F7800.000
G1 X98.042 Y103.218 F540.000 E1.06228
G1 X98.042 Y103.218 F7800.000
G1 X98.184 Y102.720 F540.000 E1.08385
G1 X98.184 Y102.720 F7800.000
G1 X98.217 Y102.669 F540.000 E1.08637
G1 X98.217 Y102.669 F7800.000
G1 X98.415 Y102.348 F540.000 E1.10206
G1 X98.032 Y102.091 E1.12126
G1 X97.739 Y101.556 E1.14666
G1 X98.466 Y101.536 E1.17693
G1 X98.460 Y101.541 F7800.000
G1 X98.555 Y101.893 F540.000 E1.19209
G1 X98.415 Y102.348 E1.21193
G1 X97.739 Y101.556 F7800.000
G1 X97.565 Y101.674 F540.000 E1.22068
G1 X97.565 Y101.674 F7800.000
G1 X96.366 Y101.997 F540.000 E1.27236
G1 X96.366 Y101.997 F7800.000
G1 X95.628 Y101.774 F540.000 E1.30447
G1 X94.960 Y100.722 E1.35636
G1 X94.960 Y100.722 F7800.000
G1 X94.758 Y99.973 F540.000 E1.38862
G1 X94.758 Y99.973 F7800.000
G1 X94.877 Y99.294 F540.000 E1.41731
G1 X94.877 Y99.294 F7800.000
G1 X95.337 Y98.375 F540.000 E1.46011
G1 X95.883 Y98.085 E1.48586
G1 X96.887 Y98.042 E1.52767
G1 X97.496 Y98.286 E1.55499
G1 X97.496 Y98.286 F7800.000
G1 X97.775 Y98.517 F540.000 E1.57005
G1 X98.446 Y98.463 E1.59809
G1 X98.464 Y98.492 F7800.000
G1 X98.517 Y98.096 F540.000 E1.61468
G1 X98.095 Y96.982 E1.66429
G1 X98.035 Y96.146 E1.69916
G1 X98.035 Y96.146 F7800.000
G1 X98.396 Y95.349 F540.000 E1.73561
G1 X99.385 Y94.847 E1.78176
G1 X100.344 Y94.767 E1.82185
G1 X101.342 Y95.141 E1.86622
G1 X101.743 Y95.522 E1.88925
G1 X101.974 Y96.458 E1.92935
G1 X101.932 Y96.977 E1.95105
G1 X101.483 Y97.777 E1.98923
G1 X101.534 Y98.464 E2.01793
G1 X101.540 Y98.459 F7800.000
G1 X101.893 Y98.533 F540.000 E2.03294
G1 X101.893 Y98.533 F7800.000
G1 X102.261 Y98.444 F540.000 E2.04870
G1 X101.968 Y97.909 E2.07409
G1 X101.585 Y97.652 E2.09330
G1 X102.261 Y98.444 F7800.000
G1 X103.117 Y98.068 F540.000 E2.13219
G1 X103.117 Y98.068 F7800.000
G1 X103.958 Y98.043 F540.000 E2.16722
G1 X104.372 Y98.226 E2.18609
G1 X105.019 Y99.086 E2.23088
G1 X105.190 Y99.821 E2.26230
M106 S255
G1 F1800.000 E1.76230
G92 E0
G1 Z0.800 F7800.000
G1 X105.487 Y101.299
G1 F1800.000 E0.50000
G1 X105.308 Y102.199 F600.000 E0.52696
G1 X104.063 Y104.063 E0.59288
G1 X102.199 Y105.308 E0.65880
G1 X101.299 Y105.487 E0.68575
G1 X101.938 Y104.655 E0.71660
G1 X102.162 Y104.115 E0.73378
G1 X102.238 Y103.536 E0.75096
G1 X102.162 Y102.956 E0.76814
G1 X101.938 Y102.417 E0.78532
G1 X101.574 Y101.942 E0.80292
G1 X101.942 Y101.574 E0.81822
G1 X102.417 Y101.938 E0.83582
G1 X102.956 Y102.162 E0.85300
G1 X103.536 Y102.238 E0.87018
G1 X104.115 Y102.162 E0.88736
G1 X104.655 Y101.938 E0.90454
G1 X105.425 Y101.347 E0.93310
G1 X105.267 Y101.770 F7800.000
G1 X105.487 Y98.701
G1 X104.655 Y98.062 F600.000 E0.96395
G1 X104.115 Y97.838 E0.98113
G1 X103.536 Y97.762 E0.99831
G1 X102.956 Y97.838 E1.01549
G1 X102.417 Y98.062 E1.03266
G1 X101.942 Y98.426 E1.05026
G1 X101.574 Y98.058 E1.06557
G1 X101.938 Y97.583 E1.08317
G1 X102.162 Y97.044 E1.10035
G1 X102.238 Y96.464 E1.11753
G1 X102.162 Y95.885 E1.13471
G1 X101.938 Y95.345 E1.15188
G1 X101.299 Y94.513 E1.18273
G1 X102.199 Y94.692 E1.20969
G1 X104.063 Y95.937 E1.27561
G1 X105.308 Y97.801 E1.34153
G1 X105.472 Y98.624 E1.36620
G1 X105.162 Y98.295 F7800.000
G1 X104.781 Y98.754
G1 X105.062 Y99.119 F600.000 E1.37972
G1 X105.097 Y99.205 E1.38246
G1 X105.238 Y99.544 E1.39325
G1 X105.298 Y100.000 E1.40678
G1 X105.238 Y100.456 E1.42030
G1 X105.062 Y100.881 E1.43383
G1 X104.781 Y101.246 E1.44735
G1 X104.417 Y101.526 E1.46088
G1 X103.992 Y101.702 E1.47441
G1 X103.536 Y101.762 E1.48793
G1 X103.079 Y101.702 E1.50146
G1 X102.655 Y101.526 E1.51499
G1 X102.308 Y101.260 E1.52784
G1 X101.260 Y101.260 E1.55865
G1 X101.260 Y102.308 E1.58946
G1 X101.526 Y102.655 E1.60232
G1 X101.702 Y103.079 E1.61585
G1 X101.762 Y103.536 E1.62937
G1 X101.702 Y103.992 E1.64290
G1 X101.526 Y104.417 E1.65643
G1 X101.246 Y104.781 E1.66995
G1 X100.881 Y105.062 E1.68348
G1 X100.456 Y105.238 E1.69700
G1 X100.000 Y105.298 E1.71053
G1 X99.544 Y105.238 E1.72406
G1 X99.205 Y105.097 E1.73485
G1 X99.119 Y105.062 E1.73758
G1 X98.754 Y104.781 E1.75111
G1 X98.474 Y104.417 E1.76464
G1 X98.298 Y103.992 E1.77816
G1 X98.238 Y103.536 E1.79169
G1 X98.298 Y103.079 E1.80521
G1 X98.474 Y102.655 E1.81874
G1 X98.740 Y102.308 E1.83160
G1 X98.740 Y101.260 E1.86241
G1 X97.692 Y101.260 E1.89322
G1 X97.345 Y101.526 E1.90608
G1 X96.921 Y101.702 E1.91960
G1 X96.464 Y101.762 E1.93313
G1 X96.008 Y101.702 E1.94665
G1 X95.583 Y101.526 E1.96018
G1 X95.218 Y101.246 E1.97371
G1 X94.938 Y100.881 E1.98723
G1 X94.762 Y100.456 E2.00076
G1 X94.702 Y100.000 E2.01429
G1 X94.762 Y99.544 E2.02781
G1 X94.798 Y99.458 E2.03054
G1 X94.938 Y99.119 E2.04134
G1 X95.219 Y98.754 E2.05486
G1 X95.583 Y98.474 E2.06839
G1 X96.008 Y98.298 E2.08192
G1 X96.464 Y98.238 E2.09544
G1 X96.921 Y98.298 E2.10897
G1 X97.345 Y98.474 E2.12249
G1 X97.692 Y98.740 E2.13535
G1 X98.740 Y98.740 E2.16616
G1 X98.740 Y97.692 E2.19697
G1 X98.474 Y97.345 E2.20983
G1 X98.298 Y96.921 E2.22336
G1 X98.238 Y96.464 E2.23688
G1 X98.298 Y96.008 E2.25041
G1 X98.474 Y95.583 E2.26394
G1 X98.754 Y95.219 E2.27746
G1 X99.119 Y94.938 E2.29099
G1 X99.544 Y94.762 E2.30451
G1 X100.000 Y94.702 E2.31804
G1 X100.456 Y94.762 E2.33157
G1 X100.881 Y94.938 E2.34509
G1 X101.246 Y95.219 E2.35862
G1 X101.526 Y95.583 E2.37214
G1 X101.702 Y96.008 E2.38567
G1 X101.762 Y96.464 E2.39920
