; generated by Slic3r 0.9.10b on 2013-09-14 at 01:53:03

; layer_height = 0.05
; perimeters = 3
; top_solid_layers = 3
; bottom_solid_layers = 3
; fill_density = 0.4
; perimeter_speed = 30
; infill_speed = 60
; travel_speed = 130
; nozzle_diameter = 0.5
; filament_diameter = 3
; extrusion_multiplier = 1
; perimeters extrusion width = 0.85mm
; infill extrusion width = 3.94mm
; solid infill extrusion width = 0.85mm
; top infill extrusion width = 0.85mm
; first layer extrusion width = 0.20mm

G21 ; set units to millimeters
M107
M104 S200 ; set temperature
G28 ; home all axes
G1 Z5 F5000 ; lift nozzle
M109 S200 ; wait for temperature to be reached
G90 ; use absolute coordinates
G92 E0
M82 ; use absolute distances for extrusion
G1 F1800.000 E-0.50000
G92 E0
G1 Z0.100 F7800.000
G1 X79.480 Y89.630
G1 F1800.000 E0.50000
G1 X80.470 Y88.820 F540.000 E0.50478
G1 X81.600 Y88.220 E0.50957
G1 X82.830 Y87.850 E0.51437
G1 X84.100 Y87.720 E0.51915
G1 X115.900 Y87.720 E0.63809
G1 X117.170 Y87.850 E0.64286
G1 X118.400 Y88.220 E0.64767
G1 X119.530 Y88.820 E0.65245
G1 X120.520 Y89.630 E0.65724
G1 X121.330 Y90.620 E0.66202
G1 X121.930 Y91.750 E0.66681
G1 X122.300 Y92.980 E0.67161
G1 X122.430 Y94.250 E0.67638
G1 X122.430 Y103.850 E0.71229
G1 X122.300 Y105.120 E0.71707
G1 X121.930 Y106.350 E0.72187
G1 X121.330 Y107.480 E0.72666
G1 X120.520 Y108.470 E0.73144
G1 X119.530 Y109.280 E0.73622
G1 X118.400 Y109.880 E0.74101
G1 X117.170 Y110.250 E0.74581
G1 X115.900 Y110.380 E0.75059
G1 X84.100 Y110.380 E0.86953
G1 X82.830 Y110.250 E0.87430
G1 X81.600 Y109.880 E0.87911
G1 X80.470 Y109.280 E0.88389
G1 X79.480 Y108.470 E0.88868
G1 X78.670 Y107.480 E0.89346
G1 X78.070 Y106.350 E0.89825
G1 X77.700 Y105.120 E0.90305
G1 X77.570 Y103.850 E0.90782
G1 X77.570 Y94.250 E0.94373
G1 X77.700 Y92.980 E0.94851
G1 X78.070 Y91.750 E0.95331
G1 X78.670 Y90.620 E0.95809
G1 X79.455 Y89.661 E0.96273
G1 X79.670 Y89.820 F7800.000
G1 X80.620 Y89.040 F540.000 E0.96733
G1 X81.700 Y88.460 E0.97191
G1 X82.880 Y88.110 E0.97652
G1 X84.100 Y87.990 E0.98110
G1 X115.900 Y87.990 E1.10004
G1 X117.120 Y88.110 E1.10463
G1 X118.300 Y88.460 E1.10923
G1 X119.380 Y89.040 E1.11381
G1 X120.330 Y89.820 E1.11841
G1 X121.110 Y90.770 E1.12301
G1 X121.690 Y91.850 E1.12759
G1 X122.040 Y93.030 E1.13220
G1 X122.160 Y94.250 E1.13678
G1 X122.160 Y103.850 E1.17269
G1 X122.040 Y105.070 E1.17727
G1 X121.690 Y106.250 E1.18188
G1 X121.110 Y107.330 E1.18646
G1 X120.330 Y108.280 E1.19106
G1 X119.380 Y109.060 E1.19566
G1 X118.300 Y109.640 E1.20024
G1 X117.120 Y109.990 E1.20485
G1 X115.900 Y110.110 E1.20943
G1 X84.100 Y110.110 E1.32837
G1 X82.880 Y109.990 E1.33296
G1 X81.700 Y109.640 E1.33756
G1 X80.620 Y109.060 E1.34214
G1 X79.670 Y108.280 E1.34674
G1 X78.890 Y107.330 E1.35134
G1 X78.310 Y106.250 E1.35592
G1 X77.960 Y105.070 E1.36053
G1 X77.840 Y103.850 E1.36511
G1 X77.840 Y94.250 E1.40102
G1 X77.960 Y93.030 E1.40560
G1 X78.310 Y91.850 E1.41021
G1 X78.890 Y90.770 E1.41479
G1 X79.645 Y89.851 E1.41924
G1 F1800.000 E0.91924
G92 E0
G1 X84.761 Y94.911 F7800.000
G1 F1800.000 E0.50000
G1 X115.239 Y94.911 F540.000 E0.61399
G1 X115.239 Y103.189 E0.64496
G1 X84.761 Y103.189 E0.75895
G1 X84.761 Y94.951 E0.78977
G1 X84.497 Y94.647 F7800.000
G1 X115.503 Y94.647 F540.000 E0.90574
G1 X115.503 Y103.453 E0.93868
G1 X84.497 Y103.453 E1.05465
G1 X84.497 Y94.686 E1.08744
G1 X84.232 Y94.382 F7800.000
G1 X115.768 Y94.382 F378.000 E1.20539
G1 X115.768 Y103.718 E1.24031
G1 X84.232 Y103.718 E1.35826
G1 X84.232 Y94.422 E1.39303
G1 X84.461 Y94.514 F7800.000
G1 X85.225 Y102.997
G1 X84.953 Y102.725 F1080.000 E1.39447
G1 X84.953 Y102.350 E1.39589
G1 X85.600 Y102.997 E1.39933
G1 X85.976 Y102.997 E1.40074
G1 X84.953 Y101.974 E1.40618
G1 X84.953 Y101.598 E1.40759
G1 X86.352 Y102.997 E1.41503
G1 X86.727 Y102.997 E1.41644
G1 X84.953 Y101.223 E1.42587
G1 X84.953 Y100.847 E1.42728
G1 X87.103 Y102.997 E1.43871
G1 X87.479 Y102.997 E1.44013
G1 X84.953 Y100.471 E1.45355
G1 X84.953 Y100.096 E1.45496
G1 X87.854 Y102.997 E1.47039
G1 X88.230 Y102.997 E1.47180
G1 X84.953 Y99.720 E1.48922
G1 X84.953 Y99.344 E1.49063
G1 X88.606 Y102.997 E1.51005
G1 X88.981 Y102.997 E1.51146
G1 X84.953 Y98.969 E1.53287
G1 X84.953 Y98.593 E1.53428
G1 X89.357 Y102.997 E1.55769
G1 X89.733 Y102.997 E1.55910
G1 X84.953 Y98.217 E1.58451
G1 X84.953 Y97.842 E1.58592
G1 X90.108 Y102.997 E1.61332
G1 X90.484 Y102.997 E1.61474
G1 X84.953 Y97.466 E1.64414
G1 X84.953 Y97.090 E1.64555
G1 X90.860 Y102.997 E1.67694
G1 X91.235 Y102.997 E1.67835
G1 X84.953 Y96.715 E1.71175
G1 X84.953 Y96.339 E1.71316
G1 X91.611 Y102.997 E1.74855
G1 X91.987 Y102.997 E1.74996
G1 X84.953 Y95.963 E1.78735
G1 X84.953 Y95.587 E1.78876
G1 X92.363 Y102.997 E1.82814
G1 X92.738 Y102.997 E1.82955
G1 X84.953 Y95.212 E1.87093
G1 X85.219 Y95.103 E1.87201
G1 X93.114 Y102.997 E1.91397
G1 X93.490 Y102.997 E1.91539
G1 X85.595 Y95.103 E1.95735
G1 X85.970 Y95.103 E1.95876
G1 X93.865 Y102.997 E2.00072
G1 X94.241 Y102.997 E2.00213
G1 X86.346 Y95.103 E2.04409
G1 X86.722 Y95.103 E2.04550
G1 X94.617 Y102.997 E2.08746
G1 X94.992 Y102.997 E2.08887
G1 X87.097 Y95.103 E2.13083
G1 X87.473 Y95.103 E2.13224
G1 X95.368 Y102.997 E2.17420
G1 X95.744 Y102.997 E2.17562
G1 X87.849 Y95.103 E2.21758
G1 X88.224 Y95.103 E2.21899
G1 X96.119 Y102.997 E2.26095
G1 X96.495 Y102.997 E2.26236
G1 X88.600 Y95.103 E2.30432
G1 X88.976 Y95.103 E2.30573
G1 X96.871 Y102.997 E2.34769
G1 X97.246 Y102.997 E2.34910
G1 X89.351 Y95.103 E2.39106
G1 X89.727 Y95.103 E2.39248
G1 X97.622 Y102.997 E2.43444
G1 X97.998 Y102.997 E2.43585
G1 X90.103 Y95.103 E2.47781
G1 X90.478 Y95.103 E2.47922
G1 X98.373 Y102.997 E2.52118
G1 X98.749 Y102.997 E2.52259
G1 X90.854 Y95.103 E2.56455
G1 X91.230 Y95.103 E2.56596
G1 X99.125 Y102.997 E2.60792
G1 X99.500 Y102.997 E2.60933
G1 X91.605 Y95.103 E2.65129
G1 X91.981 Y95.103 E2.65271
G1 X99.876 Y102.997 E2.69467
G1 X100.252 Y102.997 E2.69608
G1 X92.357 Y95.103 E2.73804
G1 X92.732 Y95.103 E2.73945
G1 X100.627 Y102.997 E2.78141
G1 X101.003 Y102.997 E2.78282
G1 X93.108 Y95.103 E2.82478
G1 X93.484 Y95.103 E2.82619
G1 X101.379 Y102.997 E2.86815
G1 X101.754 Y102.997 E2.86956
G1 X93.860 Y95.103 E2.91152
G1 X94.235 Y95.103 E2.91294
G1 X102.130 Y102.997 E2.95490
G1 X102.506 Y102.997 E2.95631
G1 X94.611 Y95.103 E2.99827
G1 X94.987 Y95.103 E2.99968
G1 X102.882 Y102.997 E3.04164
G1 X103.257 Y102.997 E3.04305
G1 X95.362 Y95.103 E3.08501
G1 X95.738 Y95.103 E3.08642
G1 X103.633 Y102.997 E3.12838
G1 X104.009 Y102.997 E3.12980
G1 X96.114 Y95.103 E3.17176
G1 X96.489 Y95.103 E3.17317
G1 X104.384 Y102.997 E3.21513
G1 X104.760 Y102.997 E3.21654
G1 X96.865 Y95.103 E3.25850
G1 X97.241 Y95.103 E3.25991
G1 X105.136 Y102.997 E3.30187
G1 X105.511 Y102.997 E3.30328
G1 X97.616 Y95.103 E3.34524
G1 X97.992 Y95.103 E3.34665
G1 X105.887 Y102.997 E3.38861
G1 X106.263 Y102.997 E3.39003
G1 X98.368 Y95.103 E3.43199
G1 X98.743 Y95.103 E3.43340
G1 X106.638 Y102.997 E3.47536
G1 X107.014 Y102.997 E3.47677
G1 X99.119 Y95.103 E3.51873
G1 X99.495 Y95.103 E3.52014
G1 X107.390 Y102.997 E3.56210
G1 X107.765 Y102.997 E3.56351
G1 X99.870 Y95.103 E3.60547
G1 X100.246 Y95.103 E3.60689
G1 X108.141 Y102.997 E3.64885
G1 X108.517 Y102.997 E3.65026
G1 X100.622 Y95.103 E3.69222
G1 X100.997 Y95.103 E3.69363
G1 X108.892 Y102.997 E3.73559
G1 X109.268 Y102.997 E3.73700
G1 X101.373 Y95.103 E3.77896
G1 X101.749 Y95.103 E3.78037
G1 X109.644 Y102.997 E3.82233
G1 X110.019 Y102.997 E3.82374
G1 X102.124 Y95.103 E3.86570
G1 X102.500 Y95.103 E3.86712
G1 X110.395 Y102.997 E3.90908
G1 X110.771 Y102.997 E3.91049
G1 X102.876 Y95.103 E3.95245
G1 X103.251 Y95.103 E3.95386
G1 X111.146 Y102.997 E3.99582
G1 X111.522 Y102.997 E3.99723
G1 X103.627 Y95.103 E4.03919
G1 X104.003 Y95.103 E4.04060
G1 X111.898 Y102.997 E4.08256
G1 X112.273 Y102.997 E4.08398
G1 X104.378 Y95.103 E4.12594
G1 X104.754 Y95.103 E4.12735
G1 X112.649 Y102.997 E4.16931
G1 X113.025 Y102.997 E4.17072
G1 X105.130 Y95.103 E4.21268
G1 X105.506 Y95.103 E4.21409
G1 X113.401 Y102.997 E4.25605
G1 X113.776 Y102.997 E4.25746
G1 X105.881 Y95.103 E4.29942
G1 X106.257 Y95.103 E4.30083
G1 X114.152 Y102.997 E4.34279
G1 X114.528 Y102.997 E4.34421
G1 X106.633 Y95.103 E4.38617
G1 X107.008 Y95.103 E4.38758
G1 X114.903 Y102.997 E4.42954
G1 X115.047 Y102.766 E4.43056
G1 X107.384 Y95.103 E4.47129
G1 X107.760 Y95.103 E4.47270
G1 X115.047 Y102.390 E4.51144
G1 X115.047 Y102.015 E4.51285
G1 X108.135 Y95.103 E4.54959
G1 X108.511 Y95.103 E4.55100
G1 X115.047 Y101.639 E4.58574
G1 X115.047 Y101.263 E4.58715
G1 X108.887 Y95.103 E4.61989
G1 X109.262 Y95.103 E4.62131
G1 X115.047 Y100.888 E4.65205
G1 X115.047 Y100.512 E4.65346
G1 X109.638 Y95.103 E4.68221
G1 X110.014 Y95.103 E4.68363
G1 X115.047 Y100.136 E4.71038
G1 X115.047 Y99.761 E4.71179
G1 X110.389 Y95.103 E4.73655
G1 X110.765 Y95.103 E4.73796
G1 X115.047 Y99.385 E4.76072
G1 X115.047 Y99.009 E4.76213
G1 X111.141 Y95.103 E4.78290
G1 X111.516 Y95.103 E4.78431
G1 X115.047 Y98.634 E4.80308
G1 X115.047 Y98.258 E4.80449
G1 X111.892 Y95.103 E4.82126
G1 X112.268 Y95.103 E4.82267
G1 X115.047 Y97.882 E4.83744
G1 X115.047 Y97.507 E4.83885
G1 X112.643 Y95.103 E4.85163
G1 X113.019 Y95.103 E4.85304
G1 X115.047 Y97.131 E4.86382
G1 X115.047 Y96.755 E4.86524
G1 X113.395 Y95.103 E4.87402
G1 X113.770 Y95.103 E4.87543
G1 X115.047 Y96.380 E4.88222
G1 X115.047 Y96.004 E4.88363
G1 X114.146 Y95.103 E4.88842
G1 X114.522 Y95.103 E4.88983
G1 X115.047 Y95.628 E4.89263
G1 X115.047 Y95.253 E4.89404
G1 X114.897 Y95.103 E4.89484
M106 S255
G1 F1800.000 E4.39484
G92 E0
G1 Z0.150 F7800.000
G1 X113.802 Y96.348
G1 F1800.000 E0.50000
G1 X113.802 Y101.752 F600.000 E0.53208
G1 X86.198 Y101.752 E0.69595
G1 X86.198 Y96.348 E0.72803
G1 X113.676 Y96.348 E0.89116
G1 X114.641 Y95.509 F7800.000
G1 X114.641 Y102.591 F600.000 E0.93320
G1 X85.359 Y102.591 E1.10704
G1 X85.359 Y95.509 E1.14908
G1 X114.515 Y95.509 E1.32217
G1 X115.480 Y94.670 F7800.000
G1 X115.480 Y103.430 F600.000 E1.37418
G1 X84.520 Y103.430 E1.55798
G1 X84.520 Y94.670 E1.60999
G1 X115.354 Y94.670 E1.79305
G1 X115.061 Y95.396 F7800.000
G1 F1800.000 E1.29305
G92 E0
G1 Z0.200 F7800.000
G1 X113.802 Y96.348
G1 F1800.000 E0.50000
G1 X113.802 Y101.752 F662.567 E0.53208
G1 X86.198 Y101.752 E0.69595
G1 X86.198 Y96.348 E0.72803
G1 X113.676 Y96.348 E0.89116
G1 X114.641 Y95.509 F7800.000
G1 X114.641 Y102.591 F662.567 E0.93320
G1 X85.359 Y102.591 E1.10704
G1 X85.359 Y95.509 E1.14908
G1 X114.515 Y95.509 E1.32217
G1 X115.480 Y94.670 F7800.000
G1 X115.480 Y103.430 F600.000 E1.37418
G1 X84.520 Y103.430 E1.55798
G1 X84.520 Y94.670 E1.60999
G1 X115.354 Y94.670 E1.79305
G1 X115.061 Y95.396 F7800.000
G1 X113.193 Y99.977
G1 X112.027 Y101.143 F1325.134 E1.81287
G1 X110.826 Y101.143 E1.82729
G1 X113.193 Y98.776 E1.86750
G1 X113.193 Y97.575 E1.88193
G1 X109.625 Y101.143 E1.94254
G1 X108.425 Y101.143 E1.95696
G1 X112.612 Y96.957 E2.02808
G1 X111.411 Y96.957 E2.04250
G1 X107.224 Y101.143 E2.11362
G1 X106.023 Y101.143 E2.12805
G1 X110.210 Y96.957 E2.19917
G1 X109.009 Y96.957 E2.21359
G1 X104.822 Y101.143 E2.28471
G1 X103.622 Y101.143 E2.29913
G1 X107.809 Y96.957 E2.37025
G1 X106.608 Y96.957 E2.38467
G1 X102.421 Y101.143 E2.45580
G1 X101.220 Y101.143 E2.47022
G1 X105.407 Y96.957 E2.54134
G1 X104.207 Y96.957 E2.55576
G1 X100.020 Y101.143 E2.62688
G1 X98.819 Y101.143 E2.64130
G1 X103.006 Y96.957 E2.71242
G1 X101.805 Y96.957 E2.72685
G1 X97.618 Y101.143 E2.79797
G1 X96.418 Y101.143 E2.81239
G1 X100.605 Y96.957 E2.88351
G1 X99.404 Y96.957 E2.89793
G1 X95.217 Y101.143 E2.96905
G1 X94.016 Y101.143 E2.98347
G1 X98.203 Y96.957 E3.05460
G1 X97.002 Y96.957 E3.06902
G1 X92.816 Y101.143 E3.14014
G1 X91.615 Y101.143 E3.15456
G1 X95.802 Y96.957 E3.22568
G1 X94.601 Y96.957 E3.24010
G1 X90.414 Y101.143 E3.31122
G1 X89.213 Y101.143 E3.32565
G1 X93.400 Y96.957 E3.39677
G1 X92.200 Y96.957 E3.41119
G1 X88.013 Y101.143 E3.48231
G1 X86.812 Y101.143 E3.49673
G1 X90.999 Y96.957 E3.56785
G1 X89.798 Y96.957 E3.58228
G1 X86.807 Y99.948 E3.63309
G1 X86.807 Y98.748 E3.64752
G1 X88.598 Y96.957 E3.67794
G1 X87.397 Y96.957 E3.69236
G1 X86.807 Y97.547 E3.70239
G1 F1800.000 E3.20239
G92 E0
G1 Z0.250 F7800.000
G1 X86.198 Y96.348
G1 F1800.000 E0.50000
G1 X113.802 Y96.348 F600.000 E0.66387
G1 X113.802 Y101.752 E0.69595
G1 X86.198 Y101.752 E0.85982
G1 X86.198 Y96.474 E0.89116
G1 X85.359 Y95.509 F7800.000
G1 X114.641 Y95.509 F600.000 E1.06499
G1 X114.641 Y102.591 E1.10704
G1 X85.359 Y102.591 E1.28088
G1 X85.359 Y95.635 E1.32217
G1 X84.520 Y94.670 F7800.000
G1 X115.480 Y94.670 F600.000 E1.50597
G1 X115.480 Y103.430 E1.55798
G1 X84.520 Y103.430 E1.74179
G1 X84.520 Y94.796 E1.79305
G1 X85.246 Y95.089 F7800.000
G1 F1800.000 E1.29305
G92 E0
G1 Z0.300 F7800.000
G1 X86.198 Y96.348
G1 F1800.000 E0.50000
G1 X113.802 Y96.348 F600.000 E0.66387
G1 X113.802 Y101.752 E0.69595
G1 X86.198 Y101.752 E0.85982
G1 X86.198 Y96.474 E0.89116
G1 X85.359 Y95.509 F7800.000
G1 X114.641 Y95.509 F600.000 E1.06499
G1 X114.641 Y102.591 E1.10704
G1 X85.359 Y102.591 E1.28088
G1 X85.359 Y95.635 E1.32217
G1 X84.520 Y94.670 F7800.000
G1 X115.480 Y94.670 F600.000 E1.50597
G1 X115.480 Y103.430 E1.55798
G1 X84.520 Y103.430 E1.74179
G1 X84.520 Y94.796 E1.79305
G1 X85.246 Y95.089 F7800.000
G1 X88.192 Y96.957
G1 X88.092 Y96.984 F1067.156 E1.79881
G1 X86.977 Y101.143 E2.03807
G1 X103.239 Y101.143 E2.94152
G1 X103.264 Y101.049 E2.94695
G1 X99.172 Y96.957 E3.26847
G1 X110.499 Y101.143 F7800.000
G1 X113.193 Y101.143 F1067.156 E3.41819
G1 X113.193 Y100.421 E3.45830
G1 F1800.000 E2.95830
G92 E0
G1 Z0.350 F7800.000
G1 X113.802 Y101.752
G1 F1800.000 E0.50000
G1 X86.198 Y101.752 F600.000 E0.66387
G1 X86.198 Y96.348 E0.69595
G1 X113.802 Y96.348 E0.85982
G1 X113.802 Y101.626 E0.89116
G1 X114.641 Y102.591 F7800.000
G1 X85.359 Y102.591 F600.000 E1.06499
G1 X85.359 Y95.509 E1.10704
G1 X114.641 Y95.509 E1.28088
G1 X114.641 Y102.465 E1.32217
G1 X115.480 Y103.430 F7800.000
G1 X84.520 Y103.430 F600.000 E1.50597
G1 X84.520 Y94.670 E1.55798
G1 X115.480 Y94.670 E1.74179
G1 X115.480 Y103.304 E1.79305
G1 X114.754 Y103.011 F7800.000
G1 F1800.000 E1.29305
G92 E0
G1 Z0.400 F7800.000
G1 X113.802 Y101.752
G1 F1800.000 E0.50000
G1 X86.198 Y101.752 F600.000 E0.66387
G1 X86.198 Y96.348 E0.69595
G1 X113.802 Y96.348 E0.85982
G1 X113.802 Y101.626 E0.89116
G1 X114.641 Y102.591 F7800.000
G1 X85.359 Y102.591 F600.000 E1.06499
G1 X85.359 Y95.509 E1.10704
G1 X114.641 Y95.509 E1.28088
G1 X114.641 Y102.465 E1.32217
G1 X115.480 Y103.430 F7800.000
G1 X84.520 Y103.430 F600.000 E1.50597
G1 X84.520 Y94.670 E1.55798
G1 X115.480 Y94.670 E1.74179
G1 X115.480 Y103.304 E1.79305
G1 X114.754 Y103.011 F7800.000
G1 X113.193 Y96.957
G1 X113.193 Y100.421 F1090.849 E1.98553
G1 X110.499 Y101.143 E2.14052
G1 X106.135 Y101.143 E2.38292
G1 X101.949 Y96.957 E2.71186
G1 X96.395 Y96.957 F7800.000
G1 X100.582 Y101.143 F1090.849 E3.04080
G1 X86.807 Y101.143 E3.80609
G1 X86.807 Y96.957 E4.03868
G1 X88.065 Y96.957 E4.10857
G1 X88.092 Y96.984 E4.11069
G1 X88.192 Y96.957 E4.11645
G1 F1800.000 E3.61645
G92 E0
G1 Z0.450 F7800.000
G1 X86.198 Y96.348
G1 F1800.000 E0.50000
G1 X113.802 Y96.348 F600.000 E0.66387
G1 X113.802 Y101.752 E0.69595
G1 X86.198 Y101.752 E0.85982
G1 X86.198 Y96.474 E0.89116
G1 X85.359 Y95.509 F7800.000
G1 X114.641 Y95.509 F600.000 E1.06499
G1 X114.641 Y102.591 E1.10704
G1 X85.359 Y102.591 E1.28088
G1 X85.359 Y95.635 E1.32217
G1 X84.520 Y94.670 F7800.000
G1 X115.480 Y94.670 F600.000 E1.50597
G1 X115.480 Y103.430 E1.55798
G1 X84.520 Y103.430 E1.74179
G1 X84.520 Y94.796 E1.79305
G1 X85.246 Y95.089 F7800.000
G1 F1800.000 E1.29305
G92 E0
G1 Z0.500 F7800.000
G1 X86.198 Y96.348
G1 F1800.000 E0.50000
G1 X113.802 Y96.348 F600.000 E0.66387
G1 X113.802 Y101.752 E0.69595
G1 X86.198 Y101.752 E0.85982
G1 X86.198 Y96.474 E0.89116
G1 X85.359 Y95.509 F7800.000
G1 X114.641 Y95.509 F600.000 E1.06499
G1 X114.641 Y102.591 E1.10704
G1 X85.359 Y102.591 E1.28088
G1 X85.359 Y95.635 E1.32217
G1 X84.520 Y94.670 F7800.000
G1 X115.480 Y94.670 F600.000 E1.50597
G1 X115.480 Y103.430 E1.55798
G1 X84.520 Y103.430 E1.74179
G1 X84.520 Y94.796 E1.79305
G1 X85.246 Y95.089 F7800.000
G1 X95.778 Y96.957
G1 X86.807 Y99.361 F1119.765 E2.30905
G1 X86.807 Y101.143 E2.40809
