; generated by Slic3r 1.0.0RC2 on 2014-02-15 at 00:36:26

; layer_height = 0.4
; perimeters = 3
; top_solid_layers = 3
; bottom_solid_layers = 3
; fill_density = 0.4
; perimeter_speed = 30
; infill_speed = 60
; travel_speed = 130
; nozzle_diameter = 0.5
; filament_diameter = 3
; extrusion_multiplier = 1
; perimeters extrusion width = 0.50mm
; infill extrusion width = 0.53mm
; solid infill extrusion width = 0.53mm
; top infill extrusion width = 0.53mm
; first layer extrusion width = 1.00mm

G21 ; set units to millimeters
M107 ; disable fan
M104 S200 ; set temperature
G28 ; home all axes
G1 Z5 F5000 ; lift nozzle
G1 Z0 F5000 ; place nozzle down
M109 S200 ; wait for temperature to be reached
G90 ; use absolute coordinates
G92 E0 ; reset extrusion distance
M82 ; use absolute distances for extrusion
G1 F1800.000 E-1.00000 ; retract
G92 E0 ; reset extrusion distance
G1 Z0.500 F7800.000 ; move to next layer (0)
G1 X86.590 Y86.590 F7800.000 ; move to first skirt point
G1 E1.00000 F1800.000 ; compensate retraction
G1 X87.770 Y85.630 E1.09606 F540.000 ; skirt
G1 X89.120 Y84.910 E1.19267 ; skirt
G1 X90.580 Y84.460 E1.28914 ; skirt
G1 X92.100 Y84.310 E1.38559 ; skirt
G1 X107.890 Y84.310 E2.38266 ; skirt
G1 X109.410 Y84.460 E2.47910 ; skirt
G1 X110.870 Y84.910 E2.57558 ; skirt
G1 X112.220 Y85.630 E2.67219 ; skirt
G1 X113.400 Y86.590 E2.76824 ; skirt
G1 X114.360 Y87.770 E2.86430 ; skirt
G1 X115.080 Y89.120 E2.96091 ; skirt
G1 X115.530 Y90.580 E3.05739 ; skirt
G1 X115.680 Y92.100 E3.15383 ; skirt
G1 X115.680 Y107.900 E4.15153 ; skirt
G1 X115.530 Y109.420 E4.24798 ; skirt
G1 X115.080 Y110.880 E4.34445 ; skirt
G1 X114.360 Y112.230 E4.44107 ; skirt
G1 X113.400 Y113.410 E4.53712 ; skirt
G1 X112.220 Y114.370 E4.63318 ; skirt
G1 X110.870 Y115.090 E4.72979 ; skirt
G1 X109.410 Y115.540 E4.82626 ; skirt
G1 X107.890 Y115.690 E4.92271 ; skirt
G1 X92.100 Y115.690 E5.91978 ; skirt
G1 X90.580 Y115.540 E6.01623 ; skirt
G1 X89.120 Y115.090 E6.11270 ; skirt
G1 X87.770 Y114.370 E6.20931 ; skirt
G1 X86.590 Y113.410 E6.30537 ; skirt
G1 X85.630 Y112.230 E6.40142 ; skirt
G1 X84.910 Y110.880 E6.49803 ; skirt
G1 X84.460 Y109.420 E6.59451 ; skirt
G1 X84.310 Y107.900 E6.69095 ; skirt
G1 X84.310 Y92.100 E7.68865 ; skirt
G1 X84.460 Y90.580 E7.78510 ; skirt
G1 X84.910 Y89.120 E7.88157 ; skirt
G1 X85.630 Y87.770 E7.97819 ; skirt
G1 X86.505 Y86.694 E8.06579 ; skirt
G1 X87.230 Y87.230 F7800.000 ; move to first skirt point
G1 X88.270 Y86.370 E8.15100 F540.000 ; skirt
G1 X89.460 Y85.730 E8.23632 ; skirt
G1 X90.760 Y85.340 E8.32203 ; skirt
G1 X92.100 Y85.210 E8.40704 ; skirt
G1 X107.890 Y85.210 E9.40411 ; skirt
G1 X109.230 Y85.340 E9.48912 ; skirt
G1 X110.530 Y85.730 E9.57482 ; skirt
G1 X111.720 Y86.370 E9.66015 ; skirt
G1 X112.760 Y87.230 E9.74536 ; skirt
G1 X113.620 Y88.270 E9.83058 ; skirt
G1 X114.260 Y89.460 E9.91590 ; skirt
G1 X114.650 Y90.760 E10.00160 ; skirt
G1 X114.780 Y92.100 E10.08661 ; skirt
G1 X114.780 Y107.900 E11.08431 ; skirt
G1 X114.650 Y109.240 E11.16933 ; skirt
G1 X114.260 Y110.540 E11.25503 ; skirt
G1 X113.620 Y111.730 E11.34035 ; skirt
G1 X112.760 Y112.770 E11.42557 ; skirt
G1 X111.720 Y113.630 E11.51078 ; skirt
G1 X110.530 Y114.270 E11.59611 ; skirt
G1 X109.230 Y114.660 E11.68181 ; skirt
G1 X107.890 Y114.790 E11.76682 ; skirt
G1 X92.100 Y114.790 E12.76389 ; skirt
G1 X90.760 Y114.660 E12.84890 ; skirt
G1 X89.460 Y114.270 E12.93461 ; skirt
G1 X88.270 Y113.630 E13.01993 ; skirt
G1 X87.230 Y112.770 E13.10514 ; skirt
G1 X86.370 Y111.730 E13.19036 ; skirt
G1 X85.730 Y110.540 E13.27568 ; skirt
G1 X85.340 Y109.240 E13.36138 ; skirt
G1 X85.210 Y107.900 E13.44640 ; skirt
G1 X85.210 Y92.100 E14.44410 ; skirt
G1 X85.340 Y90.760 E14.52911 ; skirt
G1 X85.730 Y89.460 E14.61481 ; skirt
G1 X86.370 Y88.270 E14.70013 ; skirt
G1 X87.145 Y87.333 E14.77689 ; skirt
G1 F1800.000 E13.77689 ; retract
G92 E0 ; reset extrusion distance
G1 X92.323 Y92.189 F7800.000 ; move to first perimeter point
G1 E1.00000 F1800.000 ; compensate retraction
G1 X92.808 Y92.787 E1.04861 F378.000 ; perimeter
G1 X107.213 Y92.808 E1.95823 ; perimeter
G1 X107.811 Y92.323 E2.00684 ; perimeter
G1 X107.213 Y92.808 F7800.000 ; move to first perimeter point
G1 X107.182 Y95.448 E2.17352 F378.000 ; perimeter
G1 X106.961 Y95.545 E2.18881 ; perimeter
G1 X107.158 Y95.531 F7800.000 ; move to first perimeter point
G1 X107.320 Y96.340 E2.24091 F378.000 ; perimeter
G1 X107.045 Y103.503 E2.69352 ; perimeter
G1 X107.156 Y103.489 F7800.000 ; move to first perimeter point
G1 X107.318 Y104.375 E2.75039 F378.000 ; perimeter
G1 X107.192 Y107.213 E2.92982 ; perimeter
G1 X107.677 Y107.811 E2.97843 ; perimeter
G1 X107.192 Y107.213 F7800.000 ; move to first perimeter point
G1 X104.469 Y107.158 E3.15042 F378.000 ; perimeter
G1 X104.455 Y106.961 F7800.000 ; move to first perimeter point
G1 X104.469 Y107.158 E3.16294 F378.000 ; perimeter
G1 X103.660 Y107.320 E3.21503 ; perimeter
G1 X92.787 Y107.192 E3.90167 ; perimeter
G1 X92.189 Y107.677 F7800.000 ; move to first perimeter point
G1 X92.787 Y107.192 E3.95027 F378.000 ; perimeter
G1 X92.842 Y104.469 E4.12226 ; perimeter
G1 X93.039 Y104.455 F7800.000 ; move to first perimeter point
G1 X92.842 Y104.469 E4.13478 F378.000 ; perimeter
G1 X92.680 Y103.660 E4.18687 ; perimeter
G1 X92.844 Y96.511 E4.63838 ; perimeter
G1 X92.955 Y96.497 F7800.000 ; move to first perimeter point
G1 X92.682 Y95.625 E4.69607 F378.000 ; perimeter
G1 X92.808 Y92.787 E4.87550 ; perimeter
G1 F1800.000 E3.87550 ; retract
G92 E0 ; reset extrusion distance
G1 X95.750 Y93.450 F7800.000 ; move to first perimeter point
G1 E1.00000 F1800.000 ; compensate retraction
G1 X96.000 Y93.199 E1.02235 F378.000 ; perimeter
G1 X96.000 Y92.732 E1.05185 ; perimeter
G1 F1800.000 E0.05185 ; retract
G92 E0 ; reset extrusion distance
G1 X98.315 Y97.712 F7800.000 ; move to first perimeter point
G1 E1.00000 F1800.000 ; compensate retraction
G1 X99.373 Y97.228 E1.07341 F540.000 ; perimeter
G1 X100.254 Y97.168 E1.12922 ; perimeter
G1 X101.358 Y97.504 E1.20209 ; perimeter
G1 X102.244 Y98.257 E1.27550 ; perimeter
G1 X102.839 Y99.880 E1.38464 ; perimeter
G1 X102.650 Y101.027 E1.45805 ; perimeter
G1 X102.017 Y102.002 E1.53146 ; perimeter
G1 X101.046 Y102.642 E1.60487 ; perimeter
G1 X100.040 Y102.794 E1.66915 ; perimeter
G1 X99.891 Y102.841 E1.67903 ; perimeter
G1 X98.772 Y102.563 E1.75184 ; perimeter
G1 X97.848 Y101.856 E1.82525 ; perimeter
G1 X97.285 Y100.839 E1.89866 ; perimeter
G1 X97.176 Y99.673 E1.97265 ; perimeter
G1 X97.540 Y98.578 E2.04552 ; perimeter
G1 X98.226 Y97.811 E2.11047 ; perimeter
G1 X99.107 Y98.125 F7800.000 ; move inwards before travel
G1 F1800.000 E1.11047 ; retract
G92 E0 ; reset extrusion distance
G1 X103.503 Y92.955 F7800.000 ; move to first perimeter point
G1 E1.00000 F1800.000 ; compensate retraction
G1 X103.489 Y92.844 E1.00706 F378.000 ; perimeter
G1 F1800.000 E0.00706 ; retract
G92 E0 ; reset extrusion distance
G1 X96.497 Y107.045 F7800.000 ; move to first perimeter point
G1 E1.00000 F1800.000 ; compensate retraction
G1 X96.511 Y107.156 E1.00706 F378.000 ; perimeter
M106 S255 ; enable fan
G1 F1800.000 E0.00706 ; retract
G92 E0 ; reset extrusion distance
G1 Z0.900 F7800.000 ; move to next layer (1)
G1 X93.050 Y106.950 F7800.000 ; move to first perimeter point
G1 E1.00000 F1800.000 ; compensate retraction
G1 X93.050 Y93.050 E1.39329 F600.000 ; perimeter
G1 X106.950 Y93.050 E1.78658 ; perimeter
G1 X106.950 Y106.950 E2.17987 ; perimeter
G1 X93.125 Y106.950 E2.57104 ; perimeter
G1 X92.550 Y106.950 F7800.000 ; move inwards before travel
G1 X92.350 Y107.650 F7800.000 ; move to first perimeter point
G1 X92.350 Y92.350 E3.00394 F600.000 ; perimeter
G1 X107.650 Y92.350 E3.43684 ; perimeter
G1 X107.650 Y107.650 E3.86974 ; perimeter
G1 X92.425 Y107.650 E4.30052 ; perimeter
G1 X92.600 Y107.217 F7800.000 ; move inwards before travel
G1 F1800.000 E3.30052 ; retract
G92 E0 ; reset extrusion distance
G1 X97.917 Y101.920 F7800.000 ; move to first perimeter point
G1 E1.00000 F1800.000 ; compensate retraction
G1 X97.322 Y100.925 E1.03278 F600.000 ; perimeter
G1 X97.168 Y100.067 E1.05745 ; perimeter
G1 X97.378 Y98.927 E1.09025 ; perimeter
G1 X98.027 Y97.967 E1.12304 ; perimeter
G1 X99.006 Y97.347 E1.15583 ; perimeter
G1 X99.862 Y97.173 E1.18053 ; perimeter
G1 X100.727 Y97.262 E1.20515 ; perimeter
G1 X101.763 Y97.782 E1.23794 ; perimeter
G1 X102.503 Y98.674 E1.27073 ; perimeter
G1 X102.825 Y99.787 E1.30352 ; perimeter
G1 X102.674 Y100.936 E1.33632 ; perimeter
G1 X102.075 Y101.929 E1.36911 ; perimeter
G1 X101.129 Y102.598 E1.40190 ; perimeter
G1 X100.104 Y102.825 E1.43161 ; perimeter
G1 X99.970 Y102.832 E1.43540 ; perimeter
G1 X98.860 Y102.593 E1.46752 ; perimeter
G1 X97.978 Y101.963 E1.49819 ; perimeter
G1 X98.098 Y101.454 F7800.000 ; move inwards before travel
G1 F1800.000 E0.49819 ; retract
G92 E0 ; reset extrusion distance
G1 X92.713 Y101.297 F7800.000 ; move to first fill point
G1 E1.00000 F1800.000 ; compensate retraction
G1 X92.687 Y100.949 E1.00523 F600.000 ; fill
G1 X92.713 Y100.923 E1.00579 F600.000 ; fill
G1 X92.687 Y100.575 E1.01101 F600.000 ; fill
G1 X92.713 Y100.548 E1.01157 F600.000 ; fill
G1 X92.687 Y100.200 E1.01680 F600.000 ; fill
G1 X92.713 Y100.174 E1.01736 F600.000 ; fill
G1 X92.687 Y99.826 E1.02259 F600.000 ; fill
G1 X92.713 Y99.800 E1.02315 F600.000 ; fill
G1 X92.687 Y99.452 E1.02837 F600.000 ; fill
G1 X92.713 Y99.425 E1.02894 F600.000 ; fill
G1 X92.687 Y99.077 E1.03416 F600.000 ; fill
G1 X92.713 Y99.051 E1.03472 F600.000 ; fill
G1 X92.687 Y98.703 E1.03995 F600.000 ; fill
G1 X92.713 Y98.676 E1.04051 F600.000 ; fill
G1 X92.687 Y98.329 E1.04574 F600.000 ; fill
G1 X92.713 Y98.302 E1.04630 F600.000 ; fill
G1 X92.687 Y97.954 E1.05152 F600.000 ; fill
G1 X92.713 Y97.928 E1.05208 F600.000 ; fill
G1 X92.687 Y97.580 E1.05731 F600.000 ; fill
G1 X92.713 Y97.553 E1.05787 F600.000 ; fill
G1 X92.687 Y97.205 E1.06310 F600.000 ; fill
G1 X92.713 Y97.179 E1.06366 F600.000 ; fill
G1 X92.687 Y96.831 E1.06888 F600.000 ; fill
G1 X92.713 Y96.805 E1.06945 F600.000 ; fill
G1 X92.687 Y96.457 E1.07467 F600.000 ; fill
G1 X92.713 Y96.430 E1.07523 F600.000 ; fill
G1 X92.687 Y96.082 E1.08046 F600.000 ; fill
G1 X92.713 Y96.056 E1.08102 F600.000 ; fill
G1 X92.687 Y95.708 E1.08625 F600.000 ; fill
G1 X92.713 Y95.682 E1.08681 F600.000 ; fill
G1 X92.687 Y95.334 E1.09203 F600.000 ; fill
G1 X92.713 Y95.307 E1.09259 F600.000 ; fill
G1 X92.687 Y94.959 E1.09782 F600.000 ; fill
G1 X92.713 Y94.933 E1.09838 F600.000 ; fill
G1 X92.687 Y94.585 E1.10361 F600.000 ; fill
G1 X92.713 Y94.558 E1.10417 F600.000 ; fill
G1 X92.687 Y94.211 E1.10939 F600.000 ; fill
G1 X92.713 Y94.184 E1.10995 F600.000 ; fill
G1 X92.687 Y93.836 E1.11518 F600.000 ; fill
G1 X92.713 Y93.810 E1.11574 F600.000 ; fill
G1 X92.687 Y93.462 E1.12097 F600.000 ; fill
G1 X92.713 Y93.435 E1.12153 F600.000 ; fill
G1 X92.687 Y93.088 E1.12676 F600.000 ; fill
G1 X92.713 Y93.061 E1.12732 F600.000 ; fill
G1 X92.687 Y92.713 E1.13254 F600.000 ; fill
G1 X92.713 Y92.687 E1.13310 F600.000 ; fill
G1 X93.061 Y92.713 E1.13833 F600.000 ; fill
G1 X93.088 Y92.687 E1.13889 F600.000 ; fill
G1 X93.435 Y92.713 E1.14412 F600.000 ; fill
G1 X93.462 Y92.687 E1.14468 F600.000 ; fill
G1 X93.810 Y92.713 E1.14990 F600.000 ; fill
G1 X93.836 Y92.687 E1.15046 F600.000 ; fill
G1 X94.184 Y92.713 E1.15569 F600.000 ; fill
G1 X94.211 Y92.687 E1.15625 F600.000 ; fill
G1 X94.559 Y92.713 E1.16148 F600.000 ; fill
G1 X94.585 Y92.687 E1.16204 F600.000 ; fill
G1 X94.933 Y92.713 E1.16726 F600.000 ; fill
G1 X94.959 Y92.687 E1.16782 F600.000 ; fill
G1 X95.307 Y92.713 E1.17305 F600.000 ; fill
G1 X95.334 Y92.687 E1.17361 F600.000 ; fill
G1 X95.682 Y92.713 E1.17884 F600.000 ; fill
G1 X95.708 Y92.687 E1.17940 F600.000 ; fill
G1 X96.056 Y92.713 E1.18463 F600.000 ; fill
G1 X96.082 Y92.687 E1.18519 F600.000 ; fill
G1 X96.430 Y92.713 E1.19041 F600.000 ; fill
G1 X96.457 Y92.687 E1.19097 F600.000 ; fill
G1 X96.805 Y92.713 E1.19620 F600.000 ; fill
G1 X96.831 Y92.687 E1.19676 F600.000 ; fill
G1 X97.179 Y92.713 E1.20199 F600.000 ; fill
G1 X97.205 Y92.687 E1.20255 F600.000 ; fill
G1 X97.553 Y92.713 E1.20777 F600.000 ; fill
G1 X97.580 Y92.687 E1.20833 F600.000 ; fill
G1 X97.928 Y92.713 E1.21356 F600.000 ; fill
G1 X97.954 Y92.687 E1.21412 F600.000 ; fill
G1 X98.302 Y92.713 E1.21935 F600.000 ; fill
G1 X98.329 Y92.687 E1.21991 F600.000 ; fill
G1 X98.676 Y92.713 E1.22513 F600.000 ; fill
G1 X98.703 Y92.687 E1.22570 F600.000 ; fill
G1 X99.051 Y92.713 E1.23092 F600.000 ; fill
G1 X99.077 Y92.687 E1.23148 F600.000 ; fill
G1 X99.425 Y92.713 E1.23671 F600.000 ; fill
G1 X99.452 Y92.687 E1.23727 F600.000 ; fill
G1 X99.800 Y92.713 E1.24250 F600.000 ; fill
G1 X99.826 Y92.687 E1.24306 F600.000 ; fill
G1 X100.174 Y92.713 E1.24828 F600.000 ; fill
G1 X100.200 Y92.687 E1.24884 F600.000 ; fill
G1 X100.548 Y92.713 E1.25407 F600.000 ; fill
G1 X100.575 Y92.687 E1.25463 F600.000 ; fill
G1 X100.923 Y92.713 E1.25986 F600.000 ; fill
G1 X100.949 Y92.687 E1.26042 F600.000 ; fill
G1 X101.297 Y92.713 E1.26564 F600.000 ; fill
G1 X101.323 Y92.687 E1.26621 F600.000 ; fill
G1 X101.671 Y92.713 E1.27143 F600.000 ; fill
G1 X101.698 Y92.687 E1.27199 F600.000 ; fill
G1 X102.046 Y92.713 E1.27722 F600.000 ; fill
G1 X102.072 Y92.687 E1.27778 F600.000 ; fill
G1 X102.420 Y92.713 E1.28301 F600.000 ; fill
G1 X102.447 Y92.687 E1.28357 F600.000 ; fill
G1 X102.794 Y92.713 E1.28879 F600.000 ; fill
G1 X102.821 Y92.687 E1.28935 F600.000 ; fill
G1 X103.169 Y92.713 E1.29458 F600.000 ; fill
G1 X103.195 Y92.687 E1.29514 F600.000 ; fill
G1 X103.543 Y92.713 E1.30037 F600.000 ; fill
G1 X103.570 Y92.687 E1.30093 F600.000 ; fill
G1 X103.917 Y92.713 E1.30615 F600.000 ; fill
G1 X103.944 Y92.687 E1.30671 F600.000 ; fill
G1 X104.292 Y92.713 E1.31194 F600.000 ; fill
G1 X104.318 Y92.687 E1.31250 F600.000 ; fill
G1 X104.666 Y92.713 E1.31773 F600.000 ; fill
G1 X104.693 Y92.687 E1.31829 F600.000 ; fill
G1 X105.041 Y92.713 E1.32352 F600.000 ; fill
G1 X105.067 Y92.687 E1.32408 F600.000 ; fill
G1 X105.415 Y92.713 E1.32930 F600.000 ; fill
G1 X105.441 Y92.687 E1.32986 F600.000 ; fill
G1 X105.789 Y92.713 E1.33509 F600.000 ; fill
G1 X105.816 Y92.687 E1.33565 F600.000 ; fill
G1 X106.164 Y92.713 E1.34088 F600.000 ; fill
G1 X106.190 Y92.687 E1.34144 F600.000 ; fill
G1 X106.538 Y92.713 E1.34666 F600.000 ; fill
G1 X106.564 Y92.687 E1.34722 F600.000 ; fill
G1 X106.912 Y92.713 E1.35245 F600.000 ; fill
G1 X106.939 Y92.687 E1.35301 F600.000 ; fill
G1 X107.287 Y92.713 E1.35824 F600.000 ; fill
G1 X107.300 Y92.700 E1.35852 F600.000 ; fill
G1 X107.313 Y93.061 E1.36393 F600.000 ; fill
G1 X107.287 Y93.088 E1.36449 F600.000 ; fill
G1 X107.313 Y93.435 E1.36972 F600.000 ; fill
G1 X107.287 Y93.462 E1.37028 F600.000 ; fill
G1 X107.313 Y93.810 E1.37551 F600.000 ; fill
G1 X107.287 Y93.836 E1.37607 F600.000 ; fill
G1 X107.313 Y94.184 E1.38129 F600.000 ; fill
G1 X107.287 Y94.211 E1.38185 F600.000 ; fill
G1 X107.313 Y94.559 E1.38708 F600.000 ; fill
G1 X107.287 Y94.585 E1.38764 F600.000 ; fill
G1 X107.313 Y94.933 E1.39287 F600.000 ; fill
G1 X107.287 Y94.959 E1.39343 F600.000 ; fill
G1 X107.313 Y95.307 E1.39865 F600.000 ; fill
G1 X107.287 Y95.334 E1.39922 F600.000 ; fill
G1 X107.313 Y95.682 E1.40444 F600.000 ; fill
G1 X107.287 Y95.708 E1.40500 F600.000 ; fill
G1 X107.313 Y96.056 E1.41023 F600.000 ; fill
G1 X107.287 Y96.082 E1.41079 F600.000 ; fill
G1 X107.313 Y96.430 E1.41602 F600.000 ; fill
G1 X107.287 Y96.457 E1.41658 F600.000 ; fill
G1 X107.313 Y96.805 E1.42180 F600.000 ; fill
G1 X107.287 Y96.831 E1.42236 F600.000 ; fill
G1 X107.313 Y97.179 E1.42759 F600.000 ; fill
G1 X107.287 Y97.206 E1.42815 F600.000 ; fill
G1 X107.313 Y97.553 E1.43338 F600.000 ; fill
G1 X107.287 Y97.580 E1.43394 F600.000 ; fill
G1 X107.313 Y97.928 E1.43916 F600.000 ; fill
G1 X107.287 Y97.954 E1.43972 F600.000 ; fill
G1 X107.313 Y98.302 E1.44495 F600.000 ; fill
G1 X107.287 Y98.329 E1.44551 F600.000 ; fill
G1 X107.313 Y98.676 E1.45074 F600.000 ; fill
G1 X107.287 Y98.703 E1.45130 F600.000 ; fill
G1 X107.313 Y99.051 E1.45653 F600.000 ; fill
G1 X107.287 Y99.077 E1.45709 F600.000 ; fill
G1 X107.313 Y99.425 E1.46231 F600.000 ; fill
